assets/features/channel/southeast-asia1/ttb.svg

<svg width="80" height="80" viewBox="0 0 80 80" fill="none" xmlns="http://www.w3.org/2000/svg">
<rect x="0.5" y="0.5" width="79" height="79" rx="7.5" fill="white"/>
<rect x="0.5" y="0.5" width="79" height="79" rx="7.5" stroke="#EEEEEE"/>
<path d="M12 26H17.8519C17.8852 27.8444 17.863 29.6889 17.863 31.5333C19.6407 31.5593 21.4185 31.537 23.1963 31.5444C23.1963 33.4074 23.2 35.2704 23.1963 37.1333C21.5407 37.1296 19.8889 37.137 18.237 37.1296C18.1037 37.1333 17.9778 37.1556 17.8556 37.2C17.8852 39.1185 17.8556 41.037 17.8704 42.9556C17.9222 44.4074 18.5296 45.8444 19.5926 46.8444C20.6852 47.937 22.2741 48.5111 23.8148 48.3667C26.3704 48.1704 28.5704 45.9407 28.7704 43.3889C28.7815 43.1815 28.737 42.9704 28.8 42.7667C28.7963 45.4667 29.8111 48.1407 31.5926 50.1667C29.9037 52.0852 27.5519 53.4222 25.0185 53.8148C22.4333 54.2593 19.6963 53.7333 17.4519 52.3778C15.4148 51.1593 13.7778 49.2778 12.8704 47.0852C12.3074 45.7778 12.037 44.3482 12 42.9296V26Z" fill="#0050F0"/>
<path d="M28.8037 26H34.6741C34.6926 27.8481 34.6741 29.6963 34.6815 31.5444C36.4469 31.542 38.2111 31.542 39.9741 31.5444C39.9778 33.4074 39.9741 35.2704 39.9741 37.1333C38.2148 37.1296 36.4556 37.1407 34.7 37.1259C34.6556 38.9963 34.6926 40.863 34.6815 42.7333C34.6334 44.4519 35.463 46.1593 36.8111 47.2185C37.7704 47.9815 38.9926 48.4148 40.2185 48.3852C41.6926 48.3852 43.1222 47.6963 44.1111 46.6222C45.0741 45.6037 45.6111 44.2148 45.6111 42.8185C45.6148 45.4667 46.6074 48.0926 48.3408 50.0926L48.3889 50.1815C46.6297 52.163 44.1667 53.5185 41.5296 53.8556C37.8741 54.4074 34.0185 52.9482 31.5926 50.1667C29.8111 48.1407 28.7963 45.4667 28.8 42.7667C28.8 37.1778 28.7889 31.5889 28.8037 26Z" fill="#F58A1F"/>
<path fill-rule="evenodd" clip-rule="evenodd" d="M45.6111 26.0295C47.5778 26.0369 49.5444 26.011 51.5111 26.0444C51.5111 28.3184 51.4963 30.5962 51.5185 32.874C54.2111 31.4147 57.5185 31.1481 60.4148 32.1407C62.6074 32.8814 64.5444 34.3332 65.8926 36.211C67.2185 38.0407 67.9518 40.2851 68 42.5444V43.337C67.8555 45.4332 67.1777 47.4999 65.9518 49.2147C64.6444 51.0814 62.7481 52.5295 60.6037 53.3036C58.137 54.1962 55.3481 54.1888 52.8926 53.2555C51.1333 52.6147 49.574 51.4925 48.3407 50.0925C46.6074 48.0925 45.6148 45.4666 45.6111 42.8184C45.6148 37.2221 45.6111 31.6258 45.6111 26.0295ZM55.7 37.2481C53.7185 37.637 52.0148 39.1666 51.4407 41.1036C51.0592 42.3407 51.1296 43.7073 51.6111 44.9073C52.2481 46.4481 53.5963 47.6888 55.2037 48.1518C56.6185 48.5703 58.2111 48.4258 59.5 47.6962C60.7852 46.9999 61.7629 45.7777 62.1852 44.3851C62.4518 43.511 62.4555 42.5703 62.3148 41.674C61.9926 40.0147 60.8852 38.5221 59.3703 37.7629C58.2518 37.1777 56.9333 36.9999 55.7 37.2481Z" fill="#002D63"/>
</svg>

<svg xmlns="http://www.w3.org/2000/svg" width="80" height="80" fill="none" viewBox="0 0 80 80"><rect width="79" height="79" x=".5" y=".5" fill="#fff" rx="7.5"/><rect width="79" height="79" x=".5" y=".5" stroke="#eee" rx="7.5"/><path fill="#0050f0" d="M12 26h5.852c.033 1.844.011 3.689.011 5.533 1.778.026 3.556.004 5.333.011 0 1.863.004 3.726 0 5.59-1.655-.004-3.307.003-4.959-.004a1.2 1.2 0 0 0-.381.07c.03 1.918 0 3.837.014 5.756.052 1.451.66 2.888 1.723 3.888a5.35 5.35 0 0 0 4.222 1.523c2.555-.197 4.755-2.426 4.955-4.978.012-.208-.033-.419.03-.622a11.3 11.3 0 0 0 2.793 7.4c-1.69 1.918-4.041 3.255-6.574 3.648a11.14 11.14 0 0 1-7.567-1.437 11.23 11.23 0 0 1-4.582-5.293c-.563-1.307-.833-2.737-.87-4.155z"/><path fill="#f58a1f" d="M28.804 26h5.87c.019 1.848 0 3.696.008 5.544q2.648-.003 5.292 0c.004 1.863 0 3.726 0 5.59-1.76-.004-3.518.007-5.274-.008-.044 1.87-.007 3.737-.019 5.607-.048 1.719.782 3.426 2.13 4.486.96.762 2.182 1.196 3.407 1.166 1.475 0 2.904-.689 3.893-1.763a5.58 5.58 0 0 0 1.5-3.803 11.24 11.24 0 0 0 2.73 7.274l.048.088c-1.76 1.982-4.222 3.338-6.86 3.675-3.655.551-7.51-.908-9.936-3.69a11.3 11.3 0 0 1-2.793-7.4c0-5.588-.011-11.177.004-16.766"/><path fill="#002d63" fill-rule="evenodd" d="M45.611 26.03c1.967.007 3.933-.019 5.9.014 0 2.274-.015 4.552.008 6.83 2.692-1.46 6-1.726 8.896-.733A11.23 11.23 0 0 1 68 42.544v.793c-.144 2.096-.822 4.163-2.048 5.878a11.23 11.23 0 0 1-5.348 4.089c-2.467.892-5.256.885-7.711-.049-1.76-.64-3.319-1.763-4.552-3.163a11.24 11.24 0 0 1-2.73-7.274c.004-5.596 0-11.192 0-16.788M55.7 37.248c-1.982.389-3.685 1.919-4.26 3.856a5.76 5.76 0 0 0 .171 3.803c.637 1.541 1.985 2.782 3.593 3.245 1.414.418 3.007.274 4.296-.456a5.67 5.67 0 0 0 2.685-3.31c.267-.875.27-1.816.13-2.712-.322-1.66-1.43-3.152-2.945-3.911a5.6 5.6 0 0 0-3.67-.515" clip-rule="evenodd"/></svg>
